icons/Tornado Or Cyclone--1504973.svg

<svg enable-background="new 0 0 16 16" viewBox="0 0 16 16" xmlns="http://www.w3.org/2000/svg"><path d="m8 5c-2.981 0-6-.859-6-2.5 0-3.282 12-3.282 12 0 0 1.641-3.019 2.5-6 2.5zm0-4c-3.006 0-5 .903-5 1.5s1.994 1.5 5 1.5 5-.903 5-1.5-1.994-1.5-5-1.5z"/><path d="m7.5 7c-2.667 0-5.5-.876-5.5-2.5 0-.372.162-.923.933-1.436l.555.832c-.31.206-.488.426-.488.604 0 .612 1.753 1.5 4.5 1.5s4.5-.888 4.5-1.5c0-.07-.019-.184-.183-.355l.725-.69c.304.319.458.67.458 1.045 0 1.624-2.834 2.5-5.5 2.5z"/><path d="m7.5 9c-2.851 0-5-1.075-5-2.5 0-.438.201-.855.58-1.207l.68.733c-.119.111-.26.282-.26.474 0 .612 1.558 1.5 4 1.5 2.441 0 4-.888 4-1.5 0-.192-.142-.363-.26-.473l.68-.733c.38.352.58.768.58 1.206 0 1.425-2.149 2.5-5 2.5z"/><path d="m8 11c-2.243 0-4-1.098-4-2.5 0-.259.057-.496.169-.706l.882.473c-.034.063-.051.139-.051.233 0 .71 1.232 1.5 3 1.5s3-.79 3-1.5c0-.171-.071-.344-.219-.525l.777-.629c.294.362.442.751.442 1.154 0 1.402-1.757 2.5-4 2.5z"/><path d="m8.5 13c-1.962 0-3.5-1.098-3.5-2.5 0-.264.057-.517.168-.753l.904.426c-.048.103-.072.211-.072.327 0 .813 1.145 1.5 2.5 1.5s2.5-.687 2.5-1.5c0-.308-.166-.55-.306-.698l.73-.684c.377.403.576.881.576 1.382 0 1.402-1.537 2.5-3.5 2.5z"/><path d="m8.5 15c-1.378 0-2.5-1.121-2.5-2.5 0-.213.026-.417.077-.609l.967.258c-.029.107-.044.225-.044.351 0 .827.673 1.5 1.5 1.5s1.5-.673 1.5-1.5c0-.127-.015-.245-.043-.352l.967-.258c.051.191.076.396.076.61 0 1.379-1.121 2.5-2.5 2.5z"/></svg>

<?xml version="1.0" encoding="utf-8"?>
<!DOCTYPE svg PUBLIC "-//W3C//DTD SVG 1.0//EN" "http://www.w3.org/TR/2001/REC-SVG-20010904/DTD/svg10.dtd">
<svg    fill="#000000" xmlns="http://www.w3.org/2000/svg" xmlns:xlink="http://www.w3.org/1999/xlink" version="1.1" x="0px" y="0px" viewBox="0 0 16 16" style="enable-background:new 0 0 16 16;" xml:space="preserve"><g><path d="M8,5C5.019,5,2,4.141,2,2.5c0-3.282,12-3.282,12,0C14,4.141,10.981,5,8,5z M8,1C4.994,1,3,1.903,3,2.5S4.994,4,8,4   s5-0.903,5-1.5S11.006,1,8,1z"></path><path d="M7.5,7C4.833,7,2,6.124,2,4.5c0-0.372,0.162-0.923,0.933-1.436l0.555,0.832C3.178,4.102,3,4.322,3,4.5   C3,5.112,4.753,6,7.5,6S12,5.112,12,4.5c0-0.07-0.019-0.184-0.183-0.355l0.725-0.69C12.846,3.774,13,4.125,13,4.5   C13,6.124,10.166,7,7.5,7z"></path><path d="M7.5,9c-2.851,0-5-1.075-5-2.5c0-0.438,0.201-0.855,0.58-1.207l0.68,0.733C3.641,6.137,3.5,6.308,3.5,6.5   c0,0.612,1.558,1.5,4,1.5c2.441,0,4-0.888,4-1.5c0-0.192-0.142-0.363-0.26-0.473l0.68-0.733C12.3,5.646,12.5,6.062,12.5,6.5   C12.5,7.925,10.351,9,7.5,9z"></path><path d="M8,11c-2.243,0-4-1.098-4-2.5c0-0.259,0.057-0.496,0.169-0.706l0.882,0.473C5.017,8.33,5,8.406,5,8.5C5,9.21,6.232,10,8,10   c1.768,0,3-0.79,3-1.5c0-0.171-0.071-0.344-0.219-0.525l0.777-0.629C11.852,7.708,12,8.097,12,8.5C12,9.902,10.243,11,8,11z"></path><path d="M8.5,13C6.538,13,5,11.902,5,10.5c0-0.264,0.057-0.517,0.168-0.753l0.904,0.426C6.024,10.276,6,10.384,6,10.5   C6,11.313,7.145,12,8.5,12c1.355,0,2.5-0.687,2.5-1.5c0-0.308-0.166-0.55-0.306-0.698l0.73-0.684C11.801,9.521,12,9.999,12,10.5   C12,11.902,10.463,13,8.5,13z"></path><path d="M8.5,15C7.122,15,6,13.879,6,12.5c0-0.213,0.026-0.417,0.077-0.609l0.967,0.258C7.015,12.256,7,12.374,7,12.5   C7,13.327,7.673,14,8.5,14s1.5-0.673,1.5-1.5c0-0.127-0.015-0.245-0.043-0.352l0.967-0.258C10.975,12.081,11,12.286,11,12.5   C11,13.879,9.879,15,8.5,15z"></path></g></svg>
